material/.icons/material/message-alert-outline.svg

<svg xmlns="http://www.w3.org/2000/svg" viewBox="0 0 24 24"><path d="M13 10h-2V6h2v4m0 2h-2v2h2v-2m9-8v12a2 2 0 01-2 2H6l-4 4V4a2 2 0 012-2h16a2 2 0 012 2m-2 0H4v13.2L5.2 16H20V4z"/></svg>

<?xml version="1.0" encoding="UTF-8"?><!DOCTYPE svg PUBLIC "-//W3C//DTD SVG 1.1//EN" "http://www.w3.org/Graphics/SVG/1.1/DTD/svg11.dtd"><svg xmlns="http://www.w3.org/2000/svg" xmlns:xlink="http://www.w3.org/1999/xlink" version="1.1" id="mdi-message-alert-outline" width="24" height="24" viewBox="0 0 24 24"><path d="M13,10H11V6H13V10M13,12H11V14H13V12M22,4V16A2,2 0 0,1 20,18H6L2,22V4A2,2 0 0,1 4,2H20A2,2 0 0,1 22,4M20,4H4V17.2L5.2,16H20V4Z" /></svg>
